X:1
T:Union, CM
T:Union, CM
T:Attr. to Alexander Gillet or Stephen Jenks 
T:Public Domain Courtesy of the Cyber Hymnal™
C:Attr. to Alexander Gillet or Stephen Jenks
Z:Public Domain
Z:Courtesy of the Cyber Hymnal™
%%score ( 1 2 ) ( 3 4 )
L:1/8
Q:1/4=115
M:3/4
K:C
V:1 treble 
V:2 treble 
V:3 bass 
V:4 bass 
V:1
 [EG]2 | [CA]4 [DA]2 | [B,G]4 ([CG][DA]) | c4 [CA]2 | [B,d]4 [GB]2 | [Ac]4 G2 | c4 (3(c{d'}de) | %7
 [Dd]4 [Dd]2 | [Ce]4 [B,d]2 | (c>d c2) [EA]2 | ([GB]>[FA]) [EG]2 [Cc]2 | [B,d]4 [B,G]2 | %12
 [CA]4 [B,c]2 | [Ce]4 [B,d]2 x2 | [Cc]4 |] %15
V:2
 x2 | x6 | x6 | (E>D C2) x2 | x6 | x4 G2 | (E3 F) E2 | x6 | x6 | C4 x2 | x6 | x6 | x6 | x8 | x4 |] %15
V:3
 [C,C]2 | [F,A,]4 [D,D]2 | [G,D]4 B,2 | (C>D E2) ([D,D][A,C]) | [G,B,]4 [G,D]2 | [F,F]4 [G,D]2 | %6
 ([A,E]3 [B,D]) C2 | [G,B,]4 [G,B,]2 | z2 [F,A,D]2 x2 | (C>D E2) C2 | B,4 [C,E]2 | [G,D]4 [G,D]2 | %12
 [F,C]4 [A,E]2 | z2 z2 G,2 x2 | [C,C]4 |] %15
V:4
 x2 | x6 | x4 (E,D,) | C,4 x2 | x6 | x6 | x4 C2 | x6 | (C4 A,2-) | A,4 (G,F,) | (E,>D,) E,2 x2 | %11
 x6 | x6 | (C4 A,4) | x4 |] %15

